Avidclan_Website/assets/images/offer.svg

<?xml version="1.0"?>
<svg xmlns="http://www.w3.org/2000/svg" xmlns:xlink="http://www.w3.org/1999/xlink" xmlns:svgjs="http://svgjs.com/svgjs" version="1.1" width="512" height="512" x="0" y="0" viewBox="0 0 512 512" style="enable-background:new 0 0 512 512" xml:space="preserve" class=""><g><g xmlns="http://www.w3.org/2000/svg"><path d="m376.243 162.448c2.385 2.386 5.556 3.7 8.929 3.7s6.544-1.314 8.928-3.698l61.615-61.614c2.929-2.93 2.929-7.678 0-10.607-2.929-2.928-7.677-2.928-10.607 0l-59.936 59.936-19.581-19.582c-2.93-2.928-7.678-2.928-10.607 0-2.929 2.93-2.929 7.678 0 10.607zm118.257 238.052h-5v-211.046c3.199-1.945 6.165-4.407 8.221-7.962 3.49-6.033 2.908-12.821 2.395-18.811-.289-3.369-.587-6.853.021-9.132.559-2.089 2.497-4.849 4.371-7.519 3.512-5.002 7.492-10.671 7.492-17.88s-3.98-12.878-7.492-17.88c-1.874-2.67-3.813-5.43-4.37-7.518-.609-2.28-.312-5.765-.022-9.133.514-5.989 1.096-12.777-2.395-18.811-3.536-6.112-9.756-9.009-15.244-11.563-3.022-1.408-6.148-2.863-7.754-4.47-1.606-1.605-3.062-4.731-4.47-7.755-2.555-5.487-5.45-11.707-11.563-15.243-6.032-3.489-12.818-2.908-18.812-2.395-3.365.289-6.851.588-9.132-.021-2.089-.559-4.849-2.497-7.519-4.371-5.002-3.512-10.671-7.492-17.88-7.492s-12.878 3.98-17.88 7.492c-2.67 1.874-5.43 3.813-7.518 4.37-2.281.611-5.766.311-9.133.022-5.988-.514-12.776-1.097-18.811 2.395-6.112 3.536-9.008 9.756-11.563 15.243-1.408 3.023-2.863 6.149-4.469 7.755-2.118 2.118-7.006 4.074-10.405 5.723h-265.568c-20.678 0-37.5 16.822-37.5 37.5v298.5h-5c-9.649.002-17.5 7.853-17.5 17.502v35c0 20.678 16.822 37.5 37.5 37.5h437c20.678 0 37.5-16.822 37.5-37.5v-35c0-9.649-7.851-17.5-17.5-17.5zm-176.034-281.608c2.626-3.74 5.341-7.607 6.585-12.265 1.231-4.608.862-9.807.477-14.289-.341-3.968-.692-8.071.434-10.017 1.342-2.319 5.726-4.143 8.591-5.477 4.008-1.866 8.551-3.98 12.031-7.46 3.479-3.479 5.594-8.022 7.46-12.031 1.699-3.648 3.456-7.421 5.477-8.59 1.948-1.126 6.049-.774 10.018-.434 4.437.379 9.467.811 14.288-.477 4.656-1.244 8.523-3.959 12.263-6.585 3.339-2.345 6.792-4.769 9.261-4.769s5.922 2.424 9.261 4.769c3.739 2.626 7.606 5.341 12.264 6.586 4.82 1.288 9.851.855 14.288.476 3.968-.342 8.072-.693 10.018.434 2.021 1.169 3.777 4.941 5.477 8.59 1.866 4.009 3.981 8.552 7.46 12.031s8.022 5.594 12.03 7.46c3.648 1.699 7.422 3.456 8.592 5.478 1.125 1.945.773 6.049.433 10.017-.38 4.438-.812 9.47.477 14.289 1.244 4.656 3.959 8.523 6.585 12.263 2.345 3.339 4.769 6.792 4.769 9.261s-2.424 5.922-4.769 9.261c-2.626 3.739-5.341 7.606-6.586 12.264-1.287 4.818-.855 9.85-.476 14.287.341 3.969.692 8.071-.434 10.018-1.169 2.021-4.942 3.778-8.591 5.478-4.008 1.866-8.551 3.981-12.03 7.46s-5.594 8.022-7.46 12.03c-4.126 8.861-5.727 9.863-15.493 9.024-4.438-.381-9.471-.812-14.289.476-4.657 1.245-8.524 3.96-12.265 6.586-3.339 2.345-6.791 4.769-9.26 4.769s-5.921-2.424-9.26-4.769c-3.74-2.626-7.607-5.341-12.265-6.585-2.441-.653-4.938-.864-7.384-.864-2.382 0-4.716.2-6.905.388-3.967.34-8.07.693-10.016-.434-2.021-1.169-3.778-4.942-5.478-8.592-4.324-9.286-10.131-15.131-19.491-19.49-3.648-1.699-7.421-3.456-8.59-5.477-1.126-1.945-.774-6.048-.434-10.016.169-1.967.339-4.052.374-6.181.002-.101.008-.201.005-.301.025-2.582-.164-5.224-.854-7.807-1.245-4.657-3.96-8.524-6.586-12.265-2.345-3.339-4.769-6.791-4.769-9.26s2.422-5.922 4.767-9.26zm156.034 78.884v202.724h-15v-180.483c5.559-3.602 8.315-9.5 10.753-14.737 1.342-2.882 2.729-5.842 4.247-7.504zm-146.28-4.721c1.995.929 4.025 1.88 5.644 2.88 2.781 8.339 4.207 17.055 4.207 25.955 0 20.077-7.256 38.483-19.268 52.762-5.104-15.382-15.799-28.585-29.91-36.729 3.517-5.801 5.544-12.602 5.544-19.867v-11.8c0-21.194-17.242-38.437-38.437-38.437s-38.437 17.242-38.437 38.437v11.8c0 7.266 2.027 14.066 5.544 19.867-14.111 8.143-24.806 21.347-29.91 36.729-12.012-14.278-19.268-32.685-19.268-52.762 0-45.253 36.816-82.069 82.07-82.069 20.372 0 39.676 7.417 54.74 20.934-.512 6.796-1.636 14.043 2.236 20.738 3.538 6.111 9.757 9.007 15.245 11.562zm-94.575 56.238c6.304 4.524 14.021 7.199 22.355 7.199s16.051-2.675 22.355-7.199c14.697 7.175 25.252 21.211 28.035 37.313-13.92 10.865-31.405 17.364-50.39 17.364s-36.47-6.498-50.39-17.364c2.783-16.102 13.338-30.138 28.035-37.313zm-1.082-31.237v-11.8c0-12.923 10.514-23.437 23.437-23.437s23.437 10.514 23.437 23.437v11.8c0 12.923-10.514 23.437-23.437 23.437s-23.437-10.514-23.437-23.437zm-195.063-116.056c0-12.406 10.094-22.5 22.5-22.5h251.046c-1.343 4.99-.795 10.192-.39 15h-49.656c-4.143 0-7.5 3.357-7.5 7.5s3.357 7.5 7.5 7.5h45.73c-3.7 5.318-8.033 11.081-8.033 18.651 0 2.582.516 4.963 1.333 7.19-13.484-6.873-28.495-10.521-44.031-10.521-53.524 0-97.07 43.545-97.07 97.069 0 53.58 44.171 97.08 97.07 97.08 53.682 0 97.542-44.311 97.053-97.889 5.764 2.863 12.12 2.321 17.765 1.837 3.367-.288 6.853-.589 9.134.022 2.088.558 4.849 2.496 7.519 4.37 5.002 3.512 10.671 7.492 17.879 7.492s12.877-3.98 17.879-7.492c2.67-1.874 5.431-3.813 7.519-4.371 3.312-.886 9.604.133 13.754.312v177.25h-134.509c-9.649 0-17.5 7.851-17.5 17.5v13.579c0 1.379-1.121 2.5-2.5 2.5h-67.984c-1.379 0-2.5-1.121-2.5-2.5v-13.579c0-9.649-7.851-17.5-17.5-17.5h-134.508v-291h158.5c4.143 0 7.5-3.357 7.5-7.5s-3.357-7.5-7.5-7.5h-159c-7.995 0-14.5 6.505-14.5 14.5v291.5h-15zm459.5 351c0 12.406-10.094 22.5-22.5 22.5h-437c-12.406 0-22.5-10.094-22.5-22.5v-35c0-1.379 1.121-2.5 2.5-2.5h184.508c1.379 0 2.5 1.121 2.5 2.5v13.579c0 9.649 7.851 17.5 17.5 17.5h67.984c9.649 0 17.5-7.851 17.5-17.5v-13.579c0-1.379 1.121-2.5 2.5-2.5h184.508c1.379 0 2.5 1.121 2.5 2.5zm-345.63-100v15c0 9.649 7.851 17.5 17.5 17.5h42.345c4.143 0 7.5-3.357 7.5-7.5s-3.357-7.5-7.5-7.5h-42.345c-1.379 0-2.5-1.121-2.5-2.5v-15c0-1.379 1.121-2.5 2.5-2.5h174.26c1.379 0 2.5 1.121 2.5 2.5v15c0 1.379-1.121 2.5-2.5 2.5h-96.915c-4.143 0-7.5 3.357-7.5 7.5s3.357 7.5 7.5 7.5h96.915c9.649 0 17.5-7.851 17.5-17.5v-15c0-9.649-7.851-17.5-17.5-17.5h-174.26c-9.649 0-17.5 7.851-17.5 17.5z" fill="#007bfc" data-original="#000000" style=""/></g></g></svg>

<svg width="512" height="512" viewBox="0 0 512 512" fill="none" xmlns="http://www.w3.org/2000/svg">
<path d="M376.243 162.448C378.628 164.834 381.799 166.148 385.172 166.148C388.545 166.148 391.716 164.834 394.1 162.45L455.715 100.836C458.644 97.906 458.644 93.158 455.715 90.229C452.786 87.301 448.038 87.301 445.108 90.229L385.172 150.165L365.591 130.583C362.661 127.655 357.913 127.655 354.984 130.583C352.055 133.513 352.055 138.261 354.984 141.19L376.243 162.448ZM494.5 400.5H489.5V189.454C492.699 187.509 495.665 185.047 497.721 181.492C501.211 175.459 500.629 168.671 500.116 162.681C499.827 159.312 499.529 155.828 500.137 153.549C500.696 151.46 502.634 148.7 504.508 146.03C508.02 141.028 512 135.359 512 128.15C512 120.941 508.02 115.272 504.508 110.27C502.634 107.6 500.695 104.84 500.138 102.752C499.529 100.472 499.826 96.987 500.116 93.619C500.63 87.63 501.212 80.842 497.721 74.808C494.185 68.696 487.965 65.799 482.477 63.245C479.455 61.837 476.329 60.382 474.723 58.775C473.117 57.17 471.661 54.044 470.253 51.02C467.698 45.533 464.803 39.313 458.69 35.777C452.658 32.288 445.872 32.869 439.878 33.382C436.513 33.671 433.027 33.97 430.746 33.361C428.657 32.802 425.897 30.864 423.227 28.99C418.225 25.478 412.556 21.498 405.347 21.498C398.138 21.498 392.469 25.478 387.467 28.99C384.797 30.864 382.037 32.803 379.949 33.36C377.668 33.971 374.183 33.671 370.816 33.382C364.828 32.868 358.04 32.285 352.005 35.777C345.893 39.313 342.997 45.533 340.442 51.02C339.034 54.043 337.579 57.169 335.973 58.775C333.855 60.893 328.967 62.849 325.568 64.498H60C39.322 64.498 22.5 81.32 22.5 101.998V400.498H17.5C7.851 400.5 0 408.351 0 418V453C0 473.678 16.822 490.5 37.5 490.5H474.5C495.178 490.5 512 473.678 512 453V418C512 408.351 504.149 400.5 494.5 400.5ZM318.466 118.892C321.092 115.152 323.807 111.285 325.051 106.627C326.282 102.019 325.913 96.82 325.528 92.338C325.187 88.37 324.836 84.267 325.962 82.321C327.304 80.002 331.688 78.178 334.553 76.844C338.561 74.978 343.104 72.864 346.584 69.384C350.063 65.905 352.178 61.362 354.044 57.353C355.743 53.705 357.5 49.932 359.521 48.763C361.469 47.637 365.57 47.989 369.539 48.329C373.976 48.708 379.006 49.14 383.827 47.852C388.483 46.608 392.35 43.893 396.09 41.267C399.429 38.922 402.882 36.498 405.351 36.498C407.82 36.498 411.273 38.922 414.612 41.267C418.351 43.893 422.218 46.608 426.876 47.853C431.696 49.141 436.727 48.708 441.164 48.329C445.132 47.987 449.236 47.636 451.182 48.763C453.203 49.932 454.959 53.704 456.659 57.353C458.525 61.362 460.64 65.905 464.119 69.384C467.598 72.863 472.141 74.978 476.149 76.844C479.797 78.543 483.571 80.3 484.741 82.322C485.866 84.267 485.514 88.371 485.174 92.339C484.794 96.777 484.362 101.809 485.651 106.628C486.895 111.284 489.61 115.151 492.236 118.891C494.581 122.23 497.005 125.683 497.005 128.152C497.005 130.621 494.581 134.074 492.236 137.413C489.61 141.152 486.895 145.019 485.65 149.677C484.363 154.495 484.795 159.527 485.174 163.964C485.515 167.933 485.866 172.035 484.74 173.982C483.571 176.003 479.798 177.76 476.149 179.46C472.141 181.326 467.598 183.441 464.119 186.92C460.64 190.399 458.525 194.942 456.659 198.95C452.533 207.811 450.932 208.813 441.166 207.974C436.728 207.593 431.695 207.162 426.877 208.45C422.22 209.695 418.353 212.41 414.612 215.036C411.273 217.381 407.821 219.805 405.352 219.805C402.883 219.805 399.431 217.381 396.092 215.036C392.352 212.41 388.485 209.695 383.827 208.451C381.386 207.798 378.889 207.587 376.443 207.587C374.061 207.587 371.727 207.787 369.538 207.975C365.571 208.315 361.468 208.668 359.522 207.541C357.501 206.372 355.744 202.599 354.044 198.949C349.72 189.663 343.913 183.818 334.553 179.459C330.905 177.76 327.132 176.003 325.963 173.982C324.837 172.037 325.189 167.934 325.529 163.966C325.698 161.999 325.868 159.914 325.903 157.785C325.905 157.684 325.911 157.584 325.908 157.484C325.933 154.902 325.744 152.26 325.054 149.677C323.809 145.02 321.094 141.153 318.468 137.412C316.123 134.073 313.699 130.621 313.699 128.152C313.699 125.683 316.121 122.23 318.466 118.892ZM474.5 197.776V400.5H459.5V220.017C465.059 216.415 467.815 210.517 470.253 205.28C471.595 202.398 472.982 199.438 474.5 197.776ZM328.22 193.055C330.215 193.984 332.245 194.935 333.864 195.935C336.645 204.274 338.071 212.99 338.071 221.89C338.071 241.967 330.815 260.373 318.803 274.652C313.699 259.27 303.004 246.067 288.893 237.923C292.41 232.122 294.437 225.321 294.437 218.056V206.256C294.437 185.062 277.195 167.819 256 167.819C234.805 167.819 217.563 185.061 217.563 206.256V218.056C217.563 225.322 219.59 232.122 223.107 237.923C208.996 246.066 198.301 259.27 193.197 274.652C181.185 260.374 173.929 241.967 173.929 221.89C173.929 176.637 210.745 139.821 255.999 139.821C276.371 139.821 295.675 147.238 310.739 160.755C310.227 167.551 309.103 174.798 312.975 181.493C316.513 187.604 322.732 190.5 328.22 193.055ZM233.645 249.293C239.949 253.817 247.666 256.492 256 256.492C264.334 256.492 272.051 253.817 278.355 249.293C293.052 256.468 303.607 270.504 306.39 286.606C292.47 297.471 274.985 303.97 256 303.97C237.015 303.97 219.53 297.472 205.61 286.606C208.393 270.504 218.948 256.468 233.645 249.293ZM232.563 218.056V206.256C232.563 193.333 243.077 182.819 256 182.819C268.923 182.819 279.437 193.333 279.437 206.256V218.056C279.437 230.979 268.923 241.493 256 241.493C243.077 241.493 232.563 230.979 232.563 218.056ZM37.5 102C37.5 89.594 47.594 79.5 60 79.5H311.046C309.703 84.49 310.251 89.692 310.656 94.5H261C256.857 94.5 253.5 97.857 253.5 102C253.5 106.143 256.857 109.5 261 109.5H306.73C303.03 114.818 298.697 120.581 298.697 128.151C298.697 130.733 299.213 133.114 300.03 135.341C286.546 128.468 271.535 124.82 255.999 124.82C202.475 124.82 158.929 168.365 158.929 221.889C158.929 275.469 203.1 318.969 255.999 318.969C309.681 318.969 353.541 274.658 353.052 221.08C358.816 223.943 365.172 223.401 370.817 222.917C374.184 222.629 377.67 222.328 379.951 222.939C382.039 223.497 384.8 225.435 387.47 227.309C392.472 230.821 398.141 234.801 405.349 234.801C412.557 234.801 418.226 230.821 423.228 227.309C425.898 225.435 428.659 223.496 430.747 222.938C434.059 222.052 440.351 223.071 444.501 223.25V400.5H309.992C300.343 400.5 292.492 408.351 292.492 418V431.579C292.492 432.958 291.371 434.079 289.992 434.079H222.008C220.629 434.079 219.508 432.958 219.508 431.579V418C219.508 408.351 211.657 400.5 202.008 400.5H67.5V109.5H226C230.143 109.5 233.5 106.143 233.5 102C233.5 97.857 230.143 94.5 226 94.5H67C59.005 94.5 52.5 101.005 52.5 109V400.5H37.5V102ZM497 453C497 465.406 486.906 475.5 474.5 475.5H37.5C25.094 475.5 15 465.406 15 453V418C15 416.621 16.121 415.5 17.5 415.5H202.008C203.387 415.5 204.508 416.621 204.508 418V431.579C204.508 441.228 212.359 449.079 222.008 449.079H289.992C299.641 449.079 307.492 441.228 307.492 431.579V418C307.492 416.621 308.613 415.5 309.992 415.5H494.5C495.879 415.5 497 416.621 497 418V453ZM151.37 353V368C151.37 377.649 159.221 385.5 168.87 385.5H211.215C215.358 385.5 218.715 382.143 218.715 378C218.715 373.857 215.358 370.5 211.215 370.5H168.87C167.491 370.5 166.37 369.379 166.37 368V353C166.37 351.621 167.491 350.5 168.87 350.5H343.13C344.509 350.5 345.63 351.621 345.63 353V368C345.63 369.379 344.509 370.5 343.13 370.5H246.215C242.072 370.5 238.715 373.857 238.715 378C238.715 382.143 242.072 385.5 246.215 385.5H343.13C352.779 385.5 360.63 377.649 360.63 368V353C360.63 343.351 352.779 335.5 343.13 335.5H168.87C159.221 335.5 151.37 343.351 151.37 353Z" fill="#0E53BE"/>
</svg>
